src/xmb/monochrome/Non-Redump - Sony - PlayStation Portable-content.svg

<svg xmlns="http://www.w3.org/2000/svg" xml:space="preserve" viewBox="0 0 64 64"><path d="M32 6.5c-13.25 0-24 10.75-24 24v17c0 2 2 3 2 3 6.68 5.02 13 7 22 7 9.01 0 15.31-1.98 22-7 0 0 2-1.77 2-3v-17c0-13.25-10.75-24-24-24m0 46c-12.15 0-22-9.85-22-22s9.85-22 22-22 22 9.85 22 22-9.85 22-22 22m0-42c-11.05 0-20 8.95-20 20s8.95 20 20 20 20-8.95 20-20-8.95-20-20-20m0 28c-4.42 0-8-3.58-8-8s3.58-8 8-8 8 3.58 8 8-3.58 8-8 8m6-8c0 3.31-2.69 6-6 6s-6-2.69-6-6 2.69-6 6-6 6 2.69 6 6" style="fill:#fff"/></svg>

<?xml version="1.0" encoding="utf-8"?>
<svg version="1.1" xmlns="http://www.w3.org/2000/svg" xmlns:xlink="http://www.w3.org/1999/xlink" x="0px" y="0px" viewBox="0 0 64 64" style="enable-background:new 0 0 64 64;" xml:space="preserve">
<style type="text/css">
	.st0{fill:#FFFFFF;}
</style>
<path id="PSP" class="st0" d="M32,6.5c-13.25,0-24,10.75-24,24c0,1.08,0,12.34,0,17c0,2,2,3,2,3c6.68,5.02,13,7,22,7c9.01,0,15.31-1.98,22-7c0,0,2-1.77,2-3c0-4.66,0-15.92,0-17C56,17.25,45.25,6.5,32,6.5z M32,52.5c-12.15,0-22-9.85-22-22s9.85-22,22-22s22,9.85,22,22S44.15,52.5,32,52.5z M32,10.5c-11.05,0-20,8.95-20,20s8.95,20,20,20s20-8.95,20-20S43.05,10.5,32,10.5z M32,38.5c-4.42,0-8-3.58-8-8c0-4.42,3.58-8,8-8s8,3.58,8,8C40,34.92,36.42,38.5,32,38.5z M38,30.5c0,3.31-2.69,6-6,6s-6-2.69-6-6s2.69-6,6-6S38,27.19,38,30.5z"/>
</svg>
